Mono Glyph Icons/actions/unfilled/snap-bounding-box-corners.svg

<svg height="48" viewBox="0 -960 960 960" width="48" xmlns="http://www.w3.org/2000/svg"><path d="m528-95c-26.8 0-49.34-9.2-67.6-27.4-18.26-18.4-27.4-40.8-27.4-67.6v-243c0-26.8 9.14-49.4 27.4-67.6 18.26-18.4 40.8-27.4 67.6-27.4h243c26.8 0 49.34 9 67.62 27.4 18.26 18.2 27.38 40.8 27.38 67.6v243c0 26.8-9.12 49.2-27.38 67.6-18.28 18.2-40.82 27.4-67.62 27.4z" stroke-width=".05"/><path d="m189-95c-26.033 0-48.21-9.157-66.53-27.47-18.313-18.32-27.47-40.497-27.47-66.53v-116c0-13.167 4.56-24.293 13.68-33.38 9.113-9.08 20.28-13.62 33.5-13.62 13.213 0 24.32 4.54 33.32 13.62 9 9.087 13.5 20.213 13.5 33.38v116h116c13.167 0 24.293 4.56 33.38 13.68 9.08 9.113 13.62 20.28 13.62 33.5 0 13.213-4.54 24.32-13.62 33.32-9.087 9-20.213 13.5-33.38 13.5z"/><path d="m771-655v-116h-116c-13.167 0-24.29-4.56-33.37-13.68-9.087-9.113-13.63-20.25-13.63-33.41 0-13.153 4.543-24.427 13.63-33.82 9.08-9.393 20.203-14.09 33.37-14.09h116c26.307 0 48.717 9.257 67.23 27.77s27.77 40.923 27.77 67.23v116c0 13.167-4.753 24.29-14.26 33.37-9.513 9.087-20.847 13.63-34 13.63-13.16 0-24.24-4.543-33.24-13.63-9-9.08-13.5-20.203-13.5-33.37z"/><path d="m95-655v-116c0-26.307 9.157-48.717 27.47-67.23 18.32-18.513 40.497-27.77 66.53-27.77h116c13.167 0 24.293 4.753 33.38 14.26 9.08 9.513 13.62 20.847 13.62 34 0 13.16-4.54 24.24-13.62 33.24-9.087 9-20.213 13.5-33.38 13.5h-116v116c0 13.167-4.56 24.29-13.68 33.37-9.113 9.087-20.28 13.63-33.5 13.63-13.213 0-24.32-4.543-33.32-13.63-9-9.08-13.5-20.203-13.5-33.37z"/><g stroke-width=".05"><path d="m479.82-771c-13.22 0-24.32-4.8-33.32-14.2-9-9.2-13.5-20.4-13.5-33.4s4.56-24.2 13.68-33.4c9.12-9.4 20.28-14 33.5-14s24.32 4.8 33.32 14.2 13.5 20.8 13.5 34c0 12.8-4.56 23.8-13.68 33s-20.28 13.8-33.5 13.8z"/><path d="m304.82-433c-13.22 0-24.32-4.6-33.32-13.8-9-9.4-13.5-20.4-13.5-33.2 0-12.6 4.56-23.8 13.68-33 9.12-9.4 20.28-14 33.5-14s24.32 4.6 33.32 14 13.5 20.6 13.5 33.6c0 12.8-4.56 23.8-13.68 32.8s-20.28 13.6-33.5 13.6z"/><path d="m479.82-608c-12.84 0-23.86-4.6-33.04-13.8-9.18-9-13.78-20.2-13.78-33.4s4.68-24.4 14.06-33.4 20.54-13.4 33.5-13.4 24.1 4.6 33.44 13.6c9.34 9.2 14 20.4 14 33.6s-4.74 24.2-14.24 33.2-20.8 13.6-33.94 13.6z"/><path d="m141.44-433c-12.96 0-23.94-4.6-32.94-13.8-9-9-13.5-20.2-13.5-33.4s4.62-24.4 13.86-33.4 20.24-13.4 33-13.4 23.8 4.6 33.14 13.6c9.34 9.2 14 20.4 14 33.6s-4.68 24.2-14.06 33.2-20.54 13.6-33.5 13.6z"/></g><path d="m304.328-608.99c-12.706 0-23.609-4.55-32.693-13.65-9.083-8.91-13.635-19.99-13.635-33.05 0-13.07 4.631-24.14 13.913-33.06 9.28-8.89 20.324-13.25 33.146-13.25 12.824 0 23.847 4.55 33.088 13.46 9.243 9.1 13.853 20.18 13.853 33.24 0 13.07-4.689 23.95-14.09 32.85-9.4 8.91-20.581 13.46-33.582 13.46z" stroke-width=".003"/><path d="m654.328-608c-12.705 0-23.61-4.55-32.693-13.65-9.084-8.91-13.635-19.99-13.635-33.05 0-13.07 4.631-24.15 13.912-33.05s20.324-13.26 33.147-13.26c12.824 0 23.846 4.55 33.089 13.46 9.241 9.1 13.852 20.18 13.852 33.24 0 13.07-4.69 23.95-14.09 32.85-9.4 8.91-20.581 13.46-33.582 13.46z" stroke-width=".003"/><path d="m304.34-258.8c-12.72 0-23.62-4.61-32.7-13.8-9.08-8.8-13.64-20-13.64-33s4.641-24.2 13.92-33c9.28-9 20.32-13.4 33.14-13.4s23.84 4.6 33.1 13.6c9.24 9 13.84 20.2 13.84 33.19 0 13.01-4.68 24.01-14.08 32.8-9.4 9-20.58 13.61-33.58 13.61z"/></svg>

<?xml version="1.0" encoding="utf-8"?>
<svg height="48" viewBox="0 -960 960 960" width="48" xmlns="http://www.w3.org/2000/svg">
  <path d="M 528 -95 C 501.2 -95 478.66 -104.2 460.4 -122.4 C 442.14 -140.8 433 -163.2 433 -190 L 433 -433 C 433 -459.8 442.14 -482.4 460.4 -500.6 C 478.66 -519 501.2 -528 528 -528 L 771 -528 C 797.8 -528 820.34 -519 838.62 -500.6 C 856.88 -482.4 866 -459.8 866 -433 L 866 -190 C 866 -163.2 856.88 -140.8 838.62 -122.4 C 820.34 -104.2 797.8 -95 771 -95 Z M 189 -95 C 162.967 -95 140.79 -104.157 122.47 -122.47 C 104.157 -140.79 95 -162.967 95 -189 L 95 -305 C 95 -318.167 99.56 -329.293 108.68 -338.38 C 117.793 -347.46 128.96 -352 142.18 -352 C 155.393 -352 166.5 -347.46 175.5 -338.38 C 184.5 -329.293 189 -318.167 189 -305 L 189 -189 L 305 -189 C 318.167 -189 329.293 -184.44 338.38 -175.32 C 347.46 -166.207 352 -155.04 352 -141.82 C 352 -128.607 347.46 -117.5 338.38 -108.5 C 329.293 -99.5 318.167 -95 305 -95 Z M 771 -655 L 771 -771 L 655 -771 C 641.833 -771 630.71 -775.56 621.63 -784.68 C 612.543 -793.793 608 -804.93 608 -818.09 C 608 -831.243 612.543 -842.517 621.63 -851.91 C 630.71 -861.303 641.833 -866 655 -866 L 771 -866 C 797.307 -866 819.717 -856.743 838.23 -838.23 C 856.743 -819.717 866 -797.307 866 -771 L 866 -655 C 866 -641.833 861.247 -630.71 851.74 -621.63 C 842.227 -612.543 830.893 -608 817.74 -608 C 804.58 -608 793.5 -612.543 784.5 -621.63 C 775.5 -630.71 771 -641.833 771 -655 Z M 95 -655 L 95 -771 C 95 -797.307 104.157 -819.717 122.47 -838.23 C 140.79 -856.743 162.967 -866 189 -866 L 305 -866 C 318.167 -866 329.293 -861.247 338.38 -851.74 C 347.46 -842.227 352 -830.893 352 -817.74 C 352 -804.58 347.46 -793.5 338.38 -784.5 C 329.293 -775.5 318.167 -771 305 -771 L 189 -771 L 189 -655 C 189 -641.833 184.44 -630.71 175.32 -621.63 C 166.207 -612.543 155.04 -608 141.82 -608 C 128.607 -608 117.5 -612.543 108.5 -621.63 C 99.5 -630.71 95 -641.833 95 -655 Z M 446.5 -785.2 C 437.5 -794.4 433 -805.6 433 -818.6 C 433 -831.6 437.56 -842.8 446.68 -852 C 455.8 -861.4 466.96 -866 480.18 -866 C 493.4 -866 504.5 -861.2 513.5 -851.8 C 522.5 -842.4 527 -831 527 -817.8 C 527 -805 522.44 -794 513.32 -784.8 C 504.2 -775.6 493.04 -771 479.82 -771 C 466.6 -771 455.5 -775.8 446.5 -785.2 Z M 271.5 -446.8 C 262.5 -456.2 258 -467.2 258 -480 C 258 -492.6 262.56 -503.8 271.68 -513 C 280.8 -522.4 291.96 -527 305.18 -527 C 318.4 -527 329.5 -522.4 338.5 -513 C 347.5 -503.6 352 -492.4 352 -479.4 C 352 -466.6 347.44 -455.6 338.32 -446.6 C 329.2 -437.6 318.04 -433 304.82 -433 C 291.6 -433 280.5 -437.6 271.5 -446.8 Z M 446.78 -621.8 C 437.6 -630.8 433 -642 433 -655.2 C 433 -668.4 437.68 -679.6 447.06 -688.6 C 456.44 -697.6 467.6 -702 480.56 -702 C 493.52 -702 504.66 -697.4 514 -688.4 C 523.34 -679.2 528 -668 528 -654.8 C 528 -641.6 523.26 -630.6 513.76 -621.6 C 504.26 -612.6 492.96 -608 479.82 -608 C 466.98 -608 455.96 -612.6 446.78 -621.8 Z M 108.5 -446.8 C 99.5 -455.8 95 -467 95 -480.2 C 95 -493.4 99.62 -504.6 108.86 -513.6 C 118.1 -522.6 129.1 -527 141.86 -527 C 154.62 -527 165.66 -522.4 175 -513.4 C 184.34 -504.2 189 -493 189 -479.8 C 189 -466.6 184.32 -455.6 174.94 -446.6 C 165.56 -437.6 154.4 -433 141.44 -433 C 128.48 -433 117.5 -437.6 108.5 -446.8 Z M 271.635 -622.64 C 262.552 -631.55 258 -642.63 258 -655.69 C 258 -668.76 262.631 -679.83 271.913 -688.75 C 281.193 -697.64 292.237 -702 305.059 -702 C 317.883 -702 328.906 -697.45 338.147 -688.54 C 347.39 -679.44 352 -668.36 352 -655.3 C 352 -642.23 347.311 -631.35 337.91 -622.45 C 328.51 -613.54 317.329 -608.99 304.328 -608.99 C 291.622 -608.99 280.719 -613.54 271.635 -622.64 Z M 621.635 -621.65 C 612.551 -630.56 608 -641.64 608 -654.7 C 608 -667.77 612.631 -678.85 621.912 -687.75 C 631.193 -696.65 642.236 -701.01 655.059 -701.01 C 667.883 -701.01 678.905 -696.46 688.148 -687.55 C 697.389 -678.45 702 -667.37 702 -654.31 C 702 -641.24 697.31 -630.36 687.91 -621.46 C 678.51 -612.55 667.329 -608 654.328 -608 C 641.623 -608 630.718 -612.55 621.635 -621.65 Z M 271.64 -272.6 C 262.56 -281.4 258 -292.6 258 -305.6 C 258 -318.6 262.641 -329.8 271.92 -338.6 C 281.2 -347.6 292.24 -352 305.06 -352 C 317.88 -352 328.9 -347.4 338.16 -338.4 C 347.4 -329.4 352 -318.2 352 -305.21 C 352 -292.2 347.32 -281.2 337.92 -272.41 C 328.52 -263.41 317.34 -258.8 304.34 -258.8 C 291.62 -258.8 280.72 -263.41 271.64 -272.6 Z" stroke-width=".05"/>
</svg>
